usr/share/icons/biglinux-icons-material/scalable/mimetypes/application-x-perl.svg

<svg width="24" height="24" viewBox="0 0 24 24" fill="none" xmlns="http://www.w3.org/2000/svg">
<rect x="1" y="1" width="22" height="22" rx="6.6" fill="url(#paint0_radial_3_1071)"/>
<path d="M8.86435 9.41431C8.86435 9.41431 6.96305 13.5112 7.30762 15.3261C7.54727 16.5882 8.11771 17.4544 9.31234 17.9269C10.0205 18.207 12.0005 17.4789 12.0005 17.4789V14.3428C12.0005 14.3428 10.2084 13.7547 9.84439 11.4866C9.84439 11.4866 10.037 13.4249 10.401 13.4809" stroke="#1463A5" stroke-width="0.448024" stroke-linecap="round" stroke-linejoin="round"/>
<path d="M8.08021 5.83012C6.70812 4.59803 5 5.10207 5 5.10207C5 5.10207 5.89605 7.9302 7.57623 7.65023" stroke="#1463A5" stroke-width="0.448024"/>
<path d="M8.4153 17.4791C7.96727 19.2712 9.31135 19.7192 11.9995 18.8232C14.6876 19.7192 16.0317 19.2712 15.5837 17.4791" stroke="#1463A5" stroke-width="0.448024" stroke-linecap="round"/>
<path d="M9.40695 7.31571C10.256 6.92126 11.1582 7.40484 11.1278 7.4543C11.1278 7.4543 10.8346 8.67011 10.1417 8.56521C9.49255 8.46696 9.40749 7.59139 9.40695 7.31571Z" stroke="#1463A5" stroke-width="0.448024" stroke-linejoin="round"/>
<path d="M15.5847 10.7584C15.5847 10.7584 16.7444 7.31826 16.0327 5.83012C15.8004 5.34435 15.1367 5.00018 14.6886 5.00018C13.7802 5.00018 13.3446 5.38208 12.0005 5.38208C10.6564 5.38208 10.2208 5.00018 9.31235 5.00018C8.86433 5.00018 8.20057 5.34433 7.96826 5.83012C7.25661 7.31826 8.41628 10.7584 8.41628 10.7584" stroke="#1463A5" stroke-width="0.448024"/>
<path d="M15.1357 9.41431C15.1357 9.41431 17.037 13.5112 16.6924 15.3261C16.4528 16.5882 15.8823 17.4544 14.6877 17.9269C13.9795 18.207 11.9995 17.4789 11.9995 17.4789V14.3428C11.9995 14.3428 13.7916 13.7547 14.1556 11.4866C14.1556 11.4866 13.9432 13.4646 13.5792 13.5205" stroke="#1463A5" stroke-width="0.448024" stroke-linecap="round" stroke-linejoin="round"/>
<path d="M15.9198 5.83012C17.2919 4.59803 19 5.10207 19 5.10207C19 5.10207 18.104 7.9302 16.4238 7.65023" stroke="#1463A5" stroke-width="0.448024"/>
<path d="M14.5931 7.31571C13.7441 6.92126 12.8418 7.40484 12.8722 7.4543C12.8722 7.4543 13.1654 8.67011 13.8584 8.56521C14.5075 8.46696 14.5925 7.59139 14.5931 7.31571Z" stroke="#1463A5" stroke-width="0.448024" stroke-linejoin="round"/>
<defs>
<radialGradient id="paint0_radial_3_1071" cx="0" cy="0" r="1" gradientUnits="userSpaceOnUse" gradientTransform="translate(17.5 1) rotate(116.565) scale(24.5967)">
<stop stop-color="#F4F4F4"/>
<stop offset="1" stop-color="#BBBBBB"/>
</radialGradient>
</defs>
</svg>

<svg xmlns="http://www.w3.org/2000/svg" width="24" height="24" fill="none"><rect width="22" height="22" x="1" y="1" fill="url(#a)" rx="6.6"/><path stroke="#1463A5" stroke-linecap="round" stroke-linejoin="round" stroke-width=".448" d="M8.864 9.414s-1.901 4.097-1.556 5.912c.24 1.262.81 2.128 2.004 2.6.709.281 2.689-.447 2.689-.447v-3.136s-1.793-.588-2.157-2.856c0 0 .193 1.938.557 1.994"/><path stroke="#1463A5" stroke-width=".448" d="M8.08 5.83C6.708 4.598 5 5.102 5 5.102S5.896 7.93 7.576 7.65"/><path stroke="#1463A5" stroke-linecap="round" stroke-width=".448" d="M8.415 17.48c-.448 1.791.896 2.24 3.585 1.343 2.688.896 4.032.448 3.584-1.344"/><path stroke="#1463A5" stroke-linejoin="round" stroke-width=".448" d="M9.407 7.316c.849-.395 1.751.089 1.72.138 0 0-.292 1.216-.985 1.111-.65-.098-.735-.974-.735-1.25Z"/><path stroke="#1463A5" stroke-width=".448" d="M15.585 10.758s1.16-3.44.448-4.928C15.8 5.344 15.137 5 14.689 5c-.909 0-1.344.382-2.688.382-1.345 0-1.78-.382-2.689-.382-.448 0-1.111.344-1.344.83-.711 1.488.448 4.928.448 4.928"/><path stroke="#1463A5" stroke-linecap="round" stroke-linejoin="round" stroke-width=".448" d="M15.136 9.414s1.901 4.097 1.556 5.912c-.24 1.262-.81 2.128-2.004 2.6-.709.281-2.689-.447-2.689-.447v-3.136s1.793-.588 2.157-2.856c0 0-.213 1.978-.577 2.034"/><path stroke="#1463A5" stroke-width=".448" d="M15.92 5.83C17.292 4.598 19 5.102 19 5.102s-.896 2.828-2.576 2.548"/><path stroke="#1463A5" stroke-linejoin="round" stroke-width=".448" d="M14.593 7.316c-.849-.395-1.751.089-1.72.138 0 0 .292 1.216.985 1.111.65-.098.734-.974.735-1.25Z"/><defs><radialGradient id="a" cx="0" cy="0" r="1" gradientTransform="rotate(116.565 8.441 5.908) scale(24.5967)" gradientUnits="userSpaceOnUse"><stop stop-color="#F4F4F4"/><stop offset="1" stop-color="#BBB"/></radialGradient></defs></svg>
